images/deboning-icon.svg

<svg width="78" height="64" viewBox="0 0 78 64" fill="none" xmlns="http://www.w3.org/2000/svg">
<path fill-rule="evenodd" clip-rule="evenodd" d="M8.45718 3.41404C7.51178 4.44921 6.8648 6.22885 6.8648 8.07304C6.8648 8.11905 6.86492 8.1649 6.86517 8.21058C7.05745 8.24527 7.24498 8.27135 7.42713 8.28997C9.10568 8.46157 10.3112 8.00259 10.6285 7.78577L10.6288 7.78554C11.6889 7.06167 12.4112 6.03636 12.6177 5.11591C12.7183 4.66751 12.6929 4.26837 12.5597 3.92927C12.429 3.59644 12.1681 3.25301 11.6791 2.94979L12.2061 2.09991L11.6791 2.94979C10.9804 2.51656 10.3946 2.43645 9.91426 2.52448C9.41927 2.61518 8.92089 2.9063 8.45718 3.41404ZM4.92322 9.75063C5.03428 11.2378 5.31878 12.6502 5.90222 13.9398C6.71409 15.7344 8.07255 17.2205 10.1798 18.3445C19.7787 23.4662 23.2046 28.5489 23.7403 33.178C24.2853 37.8865 21.9037 42.508 18.9515 46.8486C18.6409 47.3053 18.7593 47.9273 19.216 48.2379C19.6726 48.5485 20.2946 48.43 20.6052 47.9734C22.6512 44.9653 24.6075 41.5832 25.4218 37.9768H29.7484L26.0513 49.0682C25.8767 49.5921 26.1598 50.1584 26.6838 50.3331C27.2077 50.5077 27.774 50.2246 27.9487 49.7006L31.8566 37.9768H35.0018C34.9407 42.3186 36.3041 47.2995 38.9935 51.8899C39.2727 52.3664 39.8853 52.5264 40.3619 52.2472C40.8384 51.968 40.9984 51.3554 40.7192 50.8789C37.5913 45.5401 36.454 39.7814 37.2409 35.442C37.6328 33.2807 38.4907 31.5226 39.7573 30.312C41.0095 29.1151 42.732 28.3844 45.0068 28.3844C46.1153 28.3844 46.9889 28.6176 47.6922 29.0173C48.3957 29.4172 48.9837 30.0151 49.4737 30.827C50.4741 32.4844 51.0221 34.9585 51.2667 38.1383C51.5095 41.2948 51.4458 45.0099 51.3179 49.0679C51.2909 49.9271 51.2609 50.8015 51.2306 51.6881L51.2305 51.6894L51.2304 51.6915L51.2304 51.6943V51.6944V51.6946V51.6947V51.6949C51.118 54.9745 51 58.4205 51 61.8844C51 62.4367 51.4477 62.8844 52 62.8844C52.5523 62.8844 53 62.4367 53 61.8844C53 58.4582 53.1164 55.057 53.2286 51.7816L53.2286 51.7814L53.2286 51.7813C53.2592 50.8877 53.2894 50.0036 53.3169 49.1308C53.4447 45.0769 53.5129 41.2624 53.2608 37.9849C53.1767 36.8908 53.056 35.8407 52.8853 34.85L62.8742 16.87C63.1424 16.3873 62.9684 15.7785 62.4856 15.5102C62.0029 15.242 61.3941 15.416 61.1258 15.8988L52.184 31.9941C51.9121 31.1893 51.5832 30.4515 51.186 29.7935C50.9917 29.4715 50.7802 29.1672 50.5501 28.8827C50.6068 28.7993 50.6518 28.7059 50.6819 28.6041L55.8396 11.1993C55.9966 10.6698 55.6945 10.1133 55.165 9.95638C54.6355 9.79946 54.079 10.1015 53.9221 10.631L48.9422 27.4358C48.8566 27.3815 48.7693 27.3291 48.6805 27.2785C47.6303 26.6816 46.4052 26.3844 45.0068 26.3844C42.2679 26.3844 40.0349 27.2801 38.3754 28.8662C36.7302 30.4386 35.72 32.6201 35.273 35.0852C35.2199 35.3778 35.1747 35.6752 35.1371 35.9768H25.7475C25.8452 34.9806 25.8453 33.9701 25.7271 32.948C25.0822 27.3764 20.9815 21.841 11.1212 16.5799L11.1211 16.5799C9.37684 15.6495 8.34249 14.4816 7.72441 13.1154C7.33998 12.2657 7.10485 11.3133 6.97983 10.2514C7.06169 10.262 7.14299 10.2713 7.22372 10.2796C9.27165 10.489 10.9733 9.97239 11.7566 9.4372L4.92322 9.75063ZM4.92322 9.75063C3.41095 9.20385 1.81002 8.21593 0.2701 6.57159C-0.107414 6.16847 -0.0866615 5.53565 0.316453 5.15813C0.719567 4.78062 1.35239 4.80137 1.72991 5.20449C2.79403 6.34077 3.86526 7.08917 4.87776 7.56761C4.98364 5.49547 5.73428 3.42973 6.98039 2.06531C7.66311 1.31776 8.5306 0.744726 9.55376 0.557234C10.5916 0.367062 11.6762 0.594712 12.733 1.25003C13.5463 1.75431 14.1156 2.41976 14.4213 3.19823C14.7246 3.97043 14.7417 4.78502 14.5692 5.5538C14.2295 7.06761 13.143 8.49043 11.757 9.43697L4.92322 9.75063ZM8.17889 48.4005C7.63551 48.3017 7.11493 48.6621 7.01613 49.2055C6.91733 49.7489 7.27774 50.2695 7.82111 50.3683L18.8211 52.3683C19.3645 52.4671 19.8851 52.1067 19.9839 51.5633C20.0827 51.0199 19.7223 50.4993 19.1789 50.4005L8.17889 48.4005ZM19.8944 55.9372C20.1414 56.4312 19.9412 57.0318 19.4472 57.2788L13.4472 60.2788C12.9532 60.5258 12.3526 60.3256 12.1056 59.8316C11.8586 59.3376 12.0588 58.737 12.5528 58.49L18.5528 55.49C19.0468 55.243 19.6474 55.4432 19.8944 55.9372Z" fill="url(#paint0_linear)"/>
<path d="M65.8203 20.0776C55.687 8.83595 47.1172 5.38428 35.7607 5.38428C24.4042 5.38428 7.48235 10.2807 5.14693 32.2139C3.74568 46.0285 12.7826 59.661 14.6232 62.2695C14.8211 62.5506 15.1417 62.7168 15.4861 62.7168H18.5617C19.1476 62.7168 19.6186 62.2418 19.6186 61.6599V49.5554V46.9072C19.6186 46.9072 33.8765 52.6122 40 51.4999C42.3631 55.3751 45.6565 60.6545 46.8005 62.2695C46.9984 62.5506 47.319 62.7168 47.6634 62.7168H51.1784C51.7642 62.7168 52.2353 62.2418 52.2353 61.6599V51.0279C52.2353 51.0279 60.1401 51.9185 67.934 48.1343C75.728 44.3501 76.8403 43.2339 76.8403 35.6656C75.0591 35.6656 73.167 35.3331 71.2749 32.103C69.3828 28.873 67.6016 27.4283 67.6016 27.4283C67.6016 27.4283 76.8403 25.5916 76.8403 18.1341C76.8403 14.5676 75.3361 13.3168 75.3361 13.3168C75.3361 13.3168 74.7622 15.3672 71.3461 17.481C67.9301 19.5947 65.8203 20.0776 65.8203 20.0776Z" stroke="url(#paint1_linear)" stroke-width="2" stroke-miterlimit="10" stroke-linecap="round" stroke-linejoin="round"/>
<defs>
<linearGradient id="paint0_linear" x1="31.3685" y1="0.492432" x2="31.3685" y2="63.021" gradientUnits="userSpaceOnUse">
<stop stop-color="#AD844C"/>
<stop offset="0.213542" stop-color="#BDA180"/>
<stop offset="0.4375" stop-color="#AD844C"/>
</linearGradient>
<linearGradient id="paint1_linear" x1="40.9202" y1="5.38428" x2="40.9202" y2="62.7168" gradientUnits="userSpaceOnUse">
<stop stop-color="#AD844C"/>
<stop offset="0.208333" stop-color="#BDA180"/>
<stop offset="0.390625" stop-color="#AD844C"/>
</linearGradient>
</defs>
</svg>

<svg width="78" height="64" fill="none" xmlns="http://www.w3.org/2000/svg"><path fill-rule="evenodd" clip-rule="evenodd" d="M8.457 3.414c-.945 1.035-1.592 2.815-1.592 4.659v.138c.192.034.38.06.562.079 1.679.172 2.884-.287 3.202-.504 1.06-.724 1.782-1.75 1.989-2.67.1-.448.075-.848-.058-1.187-.131-.333-.392-.676-.88-.98l.526-.85-.527.85c-.699-.432-1.284-.513-1.765-.425-.495.091-.993.382-1.457.89zM4.923 9.751c.111 1.487.396 2.9.98 4.189.811 1.794 2.17 3.28 4.277 4.405 9.599 5.121 13.025 10.204 13.56 14.833.545 4.709-1.836 9.33-4.788 13.67a1 1 0 001.653 1.125c2.046-3.008 4.003-6.39 4.817-9.996h4.326l-3.697 11.091a1 1 0 001.898.633l3.908-11.724h3.145c-.061 4.342 1.302 9.323 3.991 13.913a1 1 0 001.726-1.011c-3.128-5.339-4.265-11.098-3.478-15.437.392-2.161 1.25-3.92 2.516-5.13 1.253-1.197 2.975-1.928 5.25-1.928 1.108 0 1.982.234 2.685.633.704.4 1.292.998 1.782 1.81 1 1.657 1.548 4.131 1.793 7.311.242 3.157.179 6.872.05 10.93-.026.86-.056 1.733-.086 2.62v.006c-.113 3.28-.231 6.726-.231 10.19a1 1 0 102 0c0-3.426.116-6.827.229-10.102l.088-2.651c.128-4.054.196-7.869-.056-11.146a33.811 33.811 0 00-.376-3.135l9.99-17.98a1 1 0 00-1.75-.971l-8.941 16.095c-.272-.805-.6-1.543-.998-2.2a8.102 8.102 0 00-.636-.911.998.998 0 00.132-.279L55.84 11.2a1 1 0 10-1.918-.568l-4.98 16.805a6.449 6.449 0 00-.261-.157c-1.05-.597-2.276-.895-3.674-.895-2.74 0-4.972.896-6.632 2.482-1.645 1.573-2.655 3.754-3.102 6.22-.053.292-.098.59-.136.89h-9.39c.098-.995.098-2.006-.02-3.028-.645-5.572-4.745-11.107-14.606-16.368-1.744-.93-2.779-2.098-3.397-3.465-.384-.85-.62-1.802-.744-2.864.082.011.163.02.244.029 2.048.209 3.75-.308 4.533-.843l-6.834.314zm0 0C3.411 9.204 1.81 8.216.27 6.57a1 1 0 011.46-1.367C2.794 6.341 3.865 7.09 4.878 7.568c.106-2.073.856-4.138 2.102-5.503.683-.747 1.55-1.32 2.574-1.508 1.038-.19 2.122.038 3.179.693.813.504 1.383 1.17 1.688 1.948.304.772.32 1.587.148 2.356-.34 1.514-1.426 2.936-2.812 3.883l-6.834.314zM8.18 48.4a1 1 0 10-.358 1.967l11 2a1 1 0 10.358-1.968l-11-2zm11.715 7.536a1 1 0 01-.447 1.342l-6 3a1 1 0 11-.894-1.789l6-3a1 1 0 011.341.447z" fill="url(#paint0_linear)"/><path d="M65.82 20.078C55.687 8.836 47.117 5.384 35.76 5.384c-11.356 0-28.278 4.897-30.613 26.83-1.401 13.815 7.636 27.447 9.476 30.056.198.28.519.447.863.447h3.076c.586 0 1.057-.475 1.057-1.057V46.907S33.877 52.612 40 51.5c2.363 3.875 5.657 9.154 6.8 10.77.198.28.519.447.863.447h3.515c.586 0 1.057-.475 1.057-1.057V51.028s7.905.89 15.699-2.894c7.794-3.784 8.906-4.9 8.906-12.468-1.78 0-3.673-.333-5.565-3.563-1.892-3.23-3.673-4.675-3.673-4.675s9.238-1.836 9.238-9.294c0-3.566-1.504-4.817-1.504-4.817s-.574 2.05-3.99 4.164c-3.416 2.114-5.526 2.597-5.526 2.597z" stroke="url(#paint1_linear)" stroke-width="2" stroke-miterlimit="10" stroke-linecap="round" stroke-linejoin="round"/><defs><linearGradient id="paint0_linear" x1="31.369" y1=".492" x2="31.369" y2="63.021" gradientUnits="userSpaceOnUse"><stop stop-color="#AD844C"/><stop offset=".214" stop-color="#BDA180"/><stop offset=".438" stop-color="#AD844C"/></linearGradient><linearGradient id="paint1_linear" x1="40.92" y1="5.384" x2="40.92" y2="62.717" gradientUnits="userSpaceOnUse"><stop stop-color="#AD844C"/><stop offset=".208" stop-color="#BDA180"/><stop offset=".391" stop-color="#AD844C"/></linearGradient></defs></svg>
